public/svgs/fish.svg

<svg fill="none" height="13" viewBox="0 0 37 13" width="37" xmlns="http://www.w3.org/2000/svg"><path d="m1.43066 5.41538c.39868.39867.79736.66443 1.19604.93022-.39868.26578-.79736.53158-1.19604.93026-1.4618134 1.46181-1.860486 3.72104-.930241 5.58144l6.245921-6.2459 3.58806 2.65784c6.6446 4.91696 15.9471 4.91696 22.5917 0l3.8539-2.79074-3.8539-2.79074c-6.6446-4.91701-15.9471-4.91701-22.5917 0l-3.58806 2.65784-6.245921-6.2459066c-.930245 1.5947066-.5315724 3.8538666.930241 5.3156866z" fill="#ff8288"/></svg>

<svg width="37" height="13" viewBox="0 0 37 13" fill="none" xmlns="http://www.w3.org/2000/svg">
<path d="M1.43066 5.41538C1.82934 5.81405 2.22802 6.07981 2.6267 6.3456C2.22802 6.61138 1.82934 6.87718 1.43066 7.27586C-0.0311534 8.73767 -0.429826 10.9969 0.500419 12.8573L6.74634 6.6114L10.3344 9.26924C16.979 14.1862 26.2815 14.1862 32.9261 9.26924L36.78 6.4785L32.9261 3.68776C26.2815 -1.22925 16.979 -1.22925 10.3344 3.68776L6.74634 6.3456L0.500419 0.0996934C-0.429826 1.6944 -0.0311534 3.95356 1.43066 5.41538Z" fill="#FF8288"/>
</svg>
